assets/picture.svg

<svg height="360" viewBox="0 0 640 360" width="640" xmlns="http://www.w3.org/2000/svg" xmlns:xlink="http://www.w3.org/1999/xlink"><mask id="a" fill="#fff"><path d="m0 38.1841026v-38.15448722h351.5864v76.30897432h-175.7932-175.7932z" fill="none"/></mask><g fill="none" fill-rule="evenodd"><path d="m0 0h640v360h-640z" fill="#48b882"/><g transform="translate(144 142)"><g fill="#fff"><path d="m130.955733 36.4426192-6.399555-1.402091c-3.202222-.7003051-4.965156-2.694309-4.965156-5.6156692 0-3.7142628 3.266756-6.5153846 7.600267-6.5153846 5.997689 0 7.7704 4.4522782 8.171289 5.81735.133955.4553859.447822.8387077.861422 1.0519384.410667.2121449.877067.2433398 1.313156.0879577l3.375288-1.2012c.839912-.2980295 1.306312-1.2104795 1.062845-2.0769269-.869245-3.0891808-4.062667-10.2755513-14.905245-10.2755513-8.020711 0-14.796711 6.1995859-14.796711 13.5382782 0 6.3082744 4.101778 10.9757577 10.971645 12.4854513l6.101333 1.3419718c3.673511.7840179 5.866667 3.0424872 5.866667 6.0418346 0 3.8315397-3.120089 6.2111359-8.142934 6.2111359-5.907733 0-8.752088-3.9101192-9.445333-7.5695936-.090933-.4770051-.379378-.8927064-.791022-1.140291-.411645-.2464-.909333-.3046436-1.367911-.1573564l-3.705778 1.1946846c-.811556.2610102-1.305333 1.0823436-1.147911 1.9098961 1.148889 6.0634539 6.091555 12.5418193 16.518578 12.5418193 8.814666 0 15.4616-5.7938552 15.4616-13.4768757 0-6.4845846-4.240623-11.1463423-11.636534-12.7913782" mask="url(#a)"/><path d="m168.844622 42.366091c.020534.1330718-.041066.2287295-.0792.2738436-.040089.0469898-.127111.125668-.266933.125668h-13.591111c-.108534 0-.210222-.0497539-.278667-.136527-.036178-.0447192-.092889-.1395871-.065511-.2637743.620889-2.8577859 3.050667-5.7421269 7.081067-5.7421269 3.956089 0 6.647911 2.1471153 7.200355 5.7429166zm-7.26-12.1561282c-7.155378 0-14.556178 6.0441051-14.556178 16.1588449 0 4.8826885 1.584978 9.0454269 4.582845 12.0397397 2.779822 2.7745667 6.578489 4.3023257 10.697867 4.3023257 6.126755 0 11.094844-3.2348885 13.288977-8.6528257.177956-.4385051.169156-.9367346-.024444-1.3658615-.191645-.4292256-.540711-.7508487-.981689-.9042564l-2.989067-1.0435474c-.832089-.2891449-1.749244.1195474-2.089511.9305153-1.289689 3.0668705-3.7136 4.6216782-7.204266 4.6216782-4.225956 0-7.440889-2.8736794-8.000178-7.1513256-.0176-.1329731.044-.22715.083111-.2710795.039111-.0459038.125155-.1218179.262044-.1218179h19.838134c.890755 0 1.628977-.7010949 1.681777-1.5960718.016623-.2857885.0264-.5977372.0264-.9096859 0-9.8918346-5.600711-16.0366321-14.615822-16.0366321z" mask="url(#a)"/><path d="m195.356089 54.2237949c-4.761778 0-7.720533-3.3366667-7.720533-8.7083052 0-5.2902948 3.031111-8.7087987 7.720533-8.7087987 4.545689 0 7.600267 3.4998475 7.600267 8.7087987 0 5.2088526-3.054578 8.7083052-7.600267 8.7083052zm12.690578-23.0992103h-3.588445c-.927911 0-1.683733.7627936-1.683733 1.7441487 0 .2140205-.165245.3042488-.216089.3266577-.068444.0304052-.203378.0667334-.326578-.0478782-1.848978-1.7063397-4.445955-2.5712077-7.720533-2.5712077-8.119467 0-14.012533 6.2832-14.012533 14.9391846 0 8.6212359 5.893066 14.8785718 14.012533 14.8785718 3.0008 0 5.719022-.9956692 7.653067-2.8018128.128088-.1184615.265955-.0833179.337333-.0529128.049867.0228038.213155.1110577.213155.3243872v1.2439448c0 6.0244603-2.606755 8.8306365-8.203555 8.8306365-3.551289 0-6.335022-2.2195941-7.090845-5.6538929-.097777-.4419602-.359822-.818273-.7392-1.0597371-.381333-.2432411-.834044-.3196488-1.274044-.2181667l-3.526844.8213333c-.898578.2097757-1.454934 1.1012975-1.266223 2.0298385 1.263289 6.2404749 6.848356 10.4332828 13.897156 10.4332828 5.250667 0 9.249778-1.6145814 11.886844-4.7990052 2.180445-2.6329854 3.332267-6.2870994 3.332267-10.5674109v-26.1001372c0-.9370308-.754844-1.6998244-1.683733-1.6998244z" mask="url(#a)"/><path d="m250.710044 30.2708718c-3.9688 0-7.199377 1.5169987-9.341688 4.3860385-.080178.1071089-.196534.1738423-.326578.1634769-.102667-.00385-.182845-.0497539-.238578-.1361321-1.793244-2.8049718-4.893778-4.4133833-8.506667-4.4133833-2.8688 0-5.629066 1.0203487-7.572889 2.8007269-.152533.1387975-.311911.0906231-.372533.0635744-.073333-.0330705-.197511-.1171782-.197511-.3107641 0-.9370308-.754844-1.6998244-1.683733-1.6998244h-3.406578c-.928889 0-1.683733.7627936-1.683733 1.6998244v27.2712282c0 .9378205.754844 1.7006141 1.683733 1.7006141h3.588444c.928889 0 1.683734-.7627936 1.683734-1.7006141v-16.6528295c0-4.0425 2.447377-6.7580333 6.090577-6.7580333 4.773512 0 5.486312 3.7763564 5.486312 6.0272243v17.3836385c0 .9378205.755822 1.7006141 1.683733 1.7006141l3.650044-.0007898c.927911 0 1.683734-.7627936 1.683734-1.6998243v-16.7130475c0-3.9436833 2.479644-6.6978153 6.028977-6.6978153 4.775467 0 5.487289 3.7763564 5.487289 6.0272243v17.3836385c0 .9378205.755823 1.7006141 1.684711 1.7006141h3.587467c.927911 0 1.683733-.7627936 1.683733-1.7006141v-17.9940116c0-8.1727602-5.369955-11.8307538-10.692-11.8307538" mask="url(#a)"/><path d="m274.967733 42.7656026c-.108533 0-.209244-.0497539-.278666-.136527-.036178-.0447192-.092889-.1395871-.065511-.2637743.620888-2.8577859 3.051644-5.7421269 7.082044-5.7421269 3.956089 0 6.648889 2.1471153 7.200356 5.7433115.020533.1326769-.041067.2283346-.0792.2734487-.040089.0469898-.127112.125668-.266934.125668zm6.677245-12.5556398c-7.1544 0-14.556178 6.0441051-14.556178 16.1588449 0 4.8826885 1.584978 9.0454269 4.583822 12.0397397 2.779822 2.7745667 6.578489 4.3023257 10.696889 4.3023257 6.126756 0 11.094845-3.2348885 13.289956-8.6524308.176977-.4385051.169155-.9363397-.023467-1.3662564-.192622-.4292256-.541689-.7508487-.981689-.9042564l-2.991022-1.0435474c-.832089-.2891449-1.748267.1195474-2.089511.9305153-1.289689 3.0668705-3.712622 4.6216782-7.204267 4.6216782-4.224978 0-7.439911-2.8744692-8.000178-7.1513256-.0176-.1329731.044978-.22715.083111-.2718692.040089-.0451141.126134-.1210282.263023-.1210282h19.837155c.890756 0 1.629956-.7010949 1.681778-1.5960718.016622-.2857885.027378-.5977372.027378-.9096859 0-9.8918346-5.600711-16.0366321-14.6168-16.0366321z" mask="url(#a)"/><path d="m317.602756 30.2708718c-3.037956 0-5.699467 1.0442385-7.697067 3.0205718-.134933.1325782-.282578.0983231-.357867.0678192-.062578-.02695-.209244-.1118474-.209244-.3181679v-.2166859c0-.9370308-.755822-1.6998244-1.684711-1.6998244h-3.526845c-.928889 0-1.684711.7627936-1.684711 1.6998244v27.2712282c0 .9378205.755822 1.7006141 1.684711 1.7006141h3.648089c.928889 0 1.683733-.7627936 1.683733-1.7006141v-15.9213295c0-3.5615462 1.600623-7.3676167 6.090578-7.3676167 4.042134 0 6.090578 2.2531385 6.090578 6.6978154v16.5911308c0 .9378205.755822 1.7006141 1.683733 1.7006141h3.649067c.927911 0 1.683733-.7627936 1.683733-1.7006141v-17.5663654c0-7.5612026-4.235733-12.2584-11.053777-12.2584" mask="url(#a)"/><path d="m345.650311 37.6597128h4.251378c.928889 0 1.684711-.7623987 1.684711-1.6998243v-3.1354795c0-.9370308-.755822-1.6998244-1.684711-1.6998244h-4.251378c-.188711 0-.342222-.1545923-.342222-.3451179v-7.2199346c0-.9370308-.755822-1.6993308-1.683733-1.6993308h-3.165067c-.928889 0-1.683733.7623-1.683733 1.6993308v3.7316371c0 1.7487885-.659023 3.8334154-3.797689 3.8334154h-.556356c-.927911 0-1.683733.7627936-1.683733 1.6998244v3.1354795c0 .9374256.755822 1.6998243 1.683733 1.6998243h3.527822c.188711 0 .342223.1545923.342223.345118v15.0683077c0 5.5682846 3.356711 9.0273615 8.759911 9.0273615 1.505777 0 2.676177-.2163897 3.240355-.3448218.761689-.1750269 1.294578-.8552923 1.294578-1.6546115v-2.9083295c0-.4801641-.2024-.9397949-.556356-1.2606282-.353955-.322709-.833066-.4781898-1.307288-.4291269-.381334.0404743-.750934.0619948-1.040356.0619948-2.460089 0-3.374311-.9065269-3.374311-3.3451564v-14.2149897c0-.1905257.153511-.345118.342222-.345118" mask="url(#a)"/></g><path d="m50.7718933 52.1496321h-46.86078219c-2.15989155 0-3.91111111-1.7680385-3.91111111-3.948718 0-2.1802846 1.75121956-3.9487179 3.91111111-3.9487179h46.86078219c2.1599111 0 3.9111111 1.7684333 3.9111111 3.9487179 0 2.1806795-1.7512 3.948718-3.9111111 3.948718" fill="#b8dfc8" mask="url(#a)"/><path d="m40.7248356 76.3385897c-3.8179289 0-7.5881423-.573798-11.2055289-1.7044246-2.0632089-.6459115-3.2178667-2.8574206-2.5784978-4.9409123.6389778-2.0831066 2.8340889-3.2488669 4.8930933-2.6036859 2.8672356.8965564 5.8582578 1.3515869 8.8909334 1.3515869 13.2706933 0 24.7939022-8.5985307 28.6745066-21.395141.6320356-2.0862064 2.8167822-3.2612461 4.8846845-2.6202705 2.0651644.6392974 3.2273511 2.8469269 2.5949244 4.9320474-4.8934844 16.1380154-19.4226755 26.9808-36.1541155 26.9808" fill="#fff" mask="url(#a)"/><path d="m77.53856 32.0878744h-46.8607822c-2.1599111 0-3.9111111-1.7676436-3.9111111-3.948718 0-2.1806795 1.7512-3.9487179 3.9111111-3.9487179h46.8607822c2.1599111 0 3.9111111 1.7680384 3.9111111 3.9487179 0 2.1810744-1.7512 3.948718-3.9111111 3.948718" fill="#b8dfc8" mask="url(#a)"/><path d="m8.31225511 32.089059c-.37965155 0-.76503289-.0559731-1.14659111-.1735462-2.06517422-.6393961-3.22743911-2.8470256-2.59493422-4.9320474 4.893856-16.1392 19.42305692-26.98158976 36.15410582-26.98158976 3.8197866 0 7.5903911.57335385 11.2062133 1.70633974 2.0636978.64591154 3.2171822 2.85739103 2.5774222 4.94053718-.6393689 2.08344231-2.8317422 3.25463206-4.8938755 2.60210641-2.8657689-.89655641-5.8564-1.35154743-8.88976-1.35154743-13.2703023 0-24.7939023 8.59803716-28.6745067 21.39593076-.5155822 1.6998244-2.06438223 2.7938167-3.73807379 2.7938167" fill="#fff" mask="url(#a)"/><path d="m67.8501511 13.0923692c0 2.1802846-1.7508089 3.9483231-3.91072 3.9483231s-3.91072-1.7680385-3.91072-3.9483231c0-2.1806795 1.7508089-3.94832305 3.91072-3.94832305s3.91072 1.76764355 3.91072 3.94832305" fill="#b8dfc8" mask="url(#a)"/><path d="m21.4201778 63.2542167c0 2.1806795-1.7508089 3.9483329-3.91072 3.9483329s-3.91072-1.7676534-3.91072-3.9483329 1.7508089-3.9483231 3.91072-3.9483231 3.91072 1.7676436 3.91072 3.9483231" fill="#b8dfc8" mask="url(#a)"/></g></g></svg>

<?xml version="1.0" encoding="UTF-8"?>
<svg width="640px" height="360px" viewBox="0 0 640 360" version="1.1" xmlns="http://www.w3.org/2000/svg" xmlns:xlink="http://www.w3.org/1999/xlink">
    <!-- Generator: Sketch 52.6 (67491) - http://www.bohemiancoding.com/sketch -->
    <title>segment/picture</title>
    <desc>Created with Sketch.</desc>
    <defs>
        <polygon id="path-1" points="0 38.1841026 0 0.0296153846 351.5864 0.0296153846 351.5864 76.3385897 175.7932 76.3385897 0 76.3385897"></polygon>
    </defs>
    <g id="segment/picture" stroke="none" stroke-width="1" fill="none" fill-rule="evenodd">
        <rect id="Rectangle" fill="#48B882" x="0" y="0" width="640" height="360"></rect>
        <g id="Segment_horizontal_2C_CMYK_cmyk" transform="translate(144.000000, 142.000000)">
            <mask id="mask-2" fill="white">
                <use xlink:href="#path-1"></use>
            </mask>
            <g id="Clip-2"></g>
            <path d="M130.955733,36.4426192 L124.556178,35.0405282 C121.353956,34.3402231 119.591022,32.3462192 119.591022,29.424859 C119.591022,25.7105962 122.857778,22.9094744 127.191289,22.9094744 C133.188978,22.9094744 134.961689,27.3617526 135.362578,28.7268244 C135.496533,29.1822103 135.8104,29.5655321 136.224,29.7787628 C136.634667,29.9909077 137.101067,30.0221026 137.537156,29.8667205 L140.912444,28.6655205 C141.752356,28.367491 142.218756,27.455041 141.975289,26.5885936 C141.106044,23.4994128 137.912622,16.3130423 127.070044,16.3130423 C119.049333,16.3130423 112.273333,22.5126282 112.273333,29.8513205 C112.273333,36.1595949 116.375111,40.8270782 123.244978,42.3367718 L129.346311,43.6787436 C133.019822,44.4627615 135.212978,46.7212308 135.212978,49.7205782 C135.212978,53.5521179 132.092889,55.9317141 127.070044,55.9317141 C121.162311,55.9317141 118.317956,52.0215949 117.624711,48.3621205 C117.533778,47.8851154 117.245333,47.4694141 116.833689,47.2218295 C116.422044,46.9754295 115.924356,46.9171859 115.465778,47.0644731 L111.76,48.2591577 C110.948444,48.5201679 110.454667,49.3415013 110.612089,50.1690538 C111.760978,56.2325077 116.703644,62.7108731 127.130667,62.7108731 C135.945333,62.7108731 142.592267,56.9170179 142.592267,49.2339974 C142.592267,42.7494128 138.351644,38.0876551 130.955733,36.4426192" id="Fill-1" fill="#FFFFFF" mask="url(#mask-2)"></path>
            <path d="M168.844622,42.366091 C168.865156,42.4991628 168.803556,42.5948205 168.765422,42.6399346 C168.725333,42.6869244 168.638311,42.7656026 168.498489,42.7656026 L154.907378,42.7656026 C154.798844,42.7656026 154.697156,42.7158487 154.628711,42.6290756 C154.592533,42.5843564 154.535822,42.4894885 154.5632,42.3653013 C155.184089,39.5075154 157.613867,36.6231744 161.644267,36.6231744 C165.600356,36.6231744 168.292178,38.7702897 168.844622,42.366091 Z M161.584622,30.2099628 C154.429244,30.2099628 147.028444,36.2540679 147.028444,46.3688077 C147.028444,51.2514962 148.613422,55.4142346 151.611289,58.4085474 C154.391111,61.1831141 158.189778,62.7108731 162.309156,62.7108731 C168.435911,62.7108731 173.404,59.4759846 175.598133,54.0580474 C175.776089,53.6195423 175.767289,53.1213128 175.573689,52.6921859 C175.382044,52.2629603 175.032978,51.9413372 174.592,51.7879295 L171.602933,50.7443821 C170.770844,50.4552372 169.853689,50.8639295 169.513422,51.6748974 C168.223733,54.7417679 165.799822,56.2965756 162.309156,56.2965756 C158.0832,56.2965756 154.868267,53.4228962 154.308978,49.14525 C154.291378,49.0122769 154.352978,48.9181 154.392089,48.8741705 C154.4312,48.8282667 154.517244,48.7523526 154.654133,48.7523526 L174.492267,48.7523526 C175.383022,48.7523526 176.121244,48.0512577 176.174044,47.1562808 C176.190667,46.8704923 176.200444,46.5585436 176.200444,46.2465949 C176.200444,36.3547603 170.599733,30.2099628 161.584622,30.2099628 L161.584622,30.2099628 Z" id="Fill-3" fill="#FFFFFF" mask="url(#mask-2)"></path>
            <path d="M195.356089,54.2237949 C190.594311,54.2237949 187.635556,50.8871282 187.635556,45.5154897 C187.635556,40.2251949 190.666667,36.806691 195.356089,36.806691 C199.901778,36.806691 202.956356,40.3065385 202.956356,45.5154897 C202.956356,50.7243423 199.901778,54.2237949 195.356089,54.2237949 Z M208.046667,31.1245846 L204.458222,31.1245846 C203.530311,31.1245846 202.774489,31.8873782 202.774489,32.8687333 C202.774489,33.0827538 202.609244,33.1729821 202.5584,33.195391 C202.489956,33.2257962 202.355022,33.2621244 202.231822,33.1475128 C200.382844,31.4411731 197.785867,30.5763051 194.511289,30.5763051 C186.391822,30.5763051 180.498756,36.8595051 180.498756,45.5154897 C180.498756,54.1367256 186.391822,60.3940615 194.511289,60.3940615 C197.512089,60.3940615 200.230311,59.3983923 202.164356,57.5922487 C202.292444,57.4737872 202.430311,57.5089308 202.501689,57.5393359 C202.551556,57.5621397 202.714844,57.6503936 202.714844,57.8637231 L202.714844,59.1076679 C202.714844,65.1321282 200.108089,67.9383044 194.511289,67.9383044 C190.96,67.9383044 188.176267,65.7187103 187.420444,62.2844115 C187.322667,61.8424513 187.060622,61.4661385 186.681244,61.2246744 C186.299911,60.9814333 185.8472,60.9050256 185.4072,61.0065077 L181.880356,61.827841 C180.981778,62.0376167 180.425422,62.9291385 180.614133,63.8576795 C181.877422,70.0981544 187.462489,74.2909623 194.511289,74.2909623 C199.761956,74.2909623 203.761067,72.6763809 206.398133,69.4919571 C208.578578,66.8589717 209.7304,63.2048577 209.7304,58.9245462 L209.7304,32.824409 C209.7304,31.8873782 208.975556,31.1245846 208.046667,31.1245846 L208.046667,31.1245846 Z" id="Fill-4" fill="#FFFFFF" mask="url(#mask-2)"></path>
            <path d="M250.710044,30.2708718 C246.741244,30.2708718 243.510667,31.7878705 241.368356,34.6569103 C241.288178,34.7640192 241.171822,34.8307526 241.041778,34.8203872 C240.939111,34.8165372 240.858933,34.7706333 240.8032,34.6842551 C239.009956,31.8792833 235.909422,30.2708718 232.296533,30.2708718 C229.427733,30.2708718 226.667467,31.2912205 224.723644,33.0715987 C224.571111,33.2103962 224.411733,33.1622218 224.351111,33.1351731 C224.277778,33.1021026 224.1536,33.0179949 224.1536,32.824409 C224.1536,31.8873782 223.398756,31.1245846 222.469867,31.1245846 L219.063289,31.1245846 C218.1344,31.1245846 217.379556,31.8873782 217.379556,32.824409 L217.379556,60.0956372 C217.379556,61.0334577 218.1344,61.7962513 219.063289,61.7962513 L222.651733,61.7962513 C223.580622,61.7962513 224.335467,61.0334577 224.335467,60.0956372 L224.335467,43.4428077 C224.335467,39.4003077 226.782844,36.6847744 230.426044,36.6847744 C235.199556,36.6847744 235.912356,40.4611308 235.912356,42.7119987 L235.912356,60.0956372 C235.912356,61.0334577 236.668178,61.7962513 237.596089,61.7962513 L241.246133,61.7954615 C242.174044,61.7954615 242.929867,61.0326679 242.929867,60.0956372 L242.929867,43.3825897 C242.929867,39.4389064 245.409511,36.6847744 248.958844,36.6847744 C253.734311,36.6847744 254.446133,40.4611308 254.446133,42.7119987 L254.446133,60.0956372 C254.446133,61.0334577 255.201956,61.7962513 256.130844,61.7962513 L259.718311,61.7962513 C260.646222,61.7962513 261.402044,61.0334577 261.402044,60.0956372 L261.402044,42.1016256 C261.402044,33.9288654 256.032089,30.2708718 250.710044,30.2708718" id="Fill-5" fill="#FFFFFF" mask="url(#mask-2)"></path>
            <path d="M274.967733,42.7656026 C274.8592,42.7656026 274.758489,42.7158487 274.689067,42.6290756 C274.652889,42.5843564 274.596178,42.4894885 274.623556,42.3653013 C275.244444,39.5075154 277.6752,36.6231744 281.7056,36.6231744 C285.661689,36.6231744 288.354489,38.7702897 288.905956,42.3664859 C288.926489,42.4991628 288.864889,42.5948205 288.826756,42.6399346 C288.786667,42.6869244 288.699644,42.7656026 288.559822,42.7656026 L274.967733,42.7656026 Z M281.644978,30.2099628 C274.490578,30.2099628 267.0888,36.2540679 267.0888,46.3688077 C267.0888,51.2514962 268.673778,55.4142346 271.672622,58.4085474 C274.452444,61.1831141 278.251111,62.7108731 282.369511,62.7108731 C288.496267,62.7108731 293.464356,59.4759846 295.659467,54.0584423 C295.836444,53.6199372 295.828622,53.1221026 295.636,52.6921859 C295.443378,52.2629603 295.094311,51.9413372 294.654311,51.7879295 L291.663289,50.7443821 C290.8312,50.4552372 289.915022,50.8639295 289.573778,51.6748974 C288.284089,54.7417679 285.861156,56.2965756 282.369511,56.2965756 C278.144533,56.2965756 274.9296,53.4221064 274.369333,49.14525 C274.351733,49.0122769 274.414311,48.9181 274.452444,48.8733808 C274.492533,48.8282667 274.578578,48.7523526 274.715467,48.7523526 L294.552622,48.7523526 C295.443378,48.7523526 296.182578,48.0512577 296.2344,47.1562808 C296.251022,46.8704923 296.261778,46.5585436 296.261778,46.2465949 C296.261778,36.3547603 290.661067,30.2099628 281.644978,30.2099628 L281.644978,30.2099628 Z" id="Fill-6" fill="#FFFFFF" mask="url(#mask-2)"></path>
            <path d="M317.602756,30.2708718 C314.5648,30.2708718 311.903289,31.3151103 309.905689,33.2914436 C309.770756,33.4240218 309.623111,33.3897667 309.547822,33.3592628 C309.485244,33.3323128 309.338578,33.2474154 309.338578,33.0410949 L309.338578,32.824409 C309.338578,31.8873782 308.582756,31.1245846 307.653867,31.1245846 L304.127022,31.1245846 C303.198133,31.1245846 302.442311,31.8873782 302.442311,32.824409 L302.442311,60.0956372 C302.442311,61.0334577 303.198133,61.7962513 304.127022,61.7962513 L307.775111,61.7962513 C308.704,61.7962513 309.458844,61.0334577 309.458844,60.0956372 L309.458844,44.1743077 C309.458844,40.6127615 311.059467,36.806691 315.549422,36.806691 C319.591556,36.806691 321.64,39.0598295 321.64,43.5045064 L321.64,60.0956372 C321.64,61.0334577 322.395822,61.7962513 323.323733,61.7962513 L326.9728,61.7962513 C327.900711,61.7962513 328.656533,61.0334577 328.656533,60.0956372 L328.656533,42.5292718 C328.656533,34.9680692 324.4208,30.2708718 317.602756,30.2708718" id="Fill-7" fill="#FFFFFF" mask="url(#mask-2)"></path>
            <path d="M345.650311,37.6597128 L349.901689,37.6597128 C350.830578,37.6597128 351.5864,36.8973141 351.5864,35.9598885 L351.5864,32.824409 C351.5864,31.8873782 350.830578,31.1245846 349.901689,31.1245846 L345.650311,31.1245846 C345.4616,31.1245846 345.308089,30.9699923 345.308089,30.7794667 L345.308089,23.5595321 C345.308089,22.6225013 344.552267,21.8602013 343.624356,21.8602013 L340.459289,21.8602013 C339.5304,21.8602013 338.775556,22.6225013 338.775556,23.5595321 L338.775556,27.2911692 C338.775556,29.0399577 338.116533,31.1245846 334.977867,31.1245846 L334.421511,31.1245846 C333.4936,31.1245846 332.737778,31.8873782 332.737778,32.824409 L332.737778,35.9598885 C332.737778,36.8973141 333.4936,37.6597128 334.421511,37.6597128 L337.949333,37.6597128 C338.138044,37.6597128 338.291556,37.8143051 338.291556,38.0048308 L338.291556,53.0731385 C338.291556,58.6414231 341.648267,62.1005 347.051467,62.1005 C348.557244,62.1005 349.727644,61.8841103 350.291822,61.7556782 C351.053511,61.5806513 351.5864,60.9003859 351.5864,60.1010667 L351.5864,57.1927372 C351.5864,56.7125731 351.384,56.2529423 351.030044,55.932109 C350.676089,55.6094 350.196978,55.4539192 349.722756,55.5029821 C349.341422,55.5434564 348.971822,55.5649769 348.6824,55.5649769 C346.222311,55.5649769 345.308089,54.65845 345.308089,52.2198205 L345.308089,38.0048308 C345.308089,37.8143051 345.4616,37.6597128 345.650311,37.6597128" id="Fill-8" fill="#FFFFFF" mask="url(#mask-2)"></path>
            <path d="M50.7718933,52.1496321 L3.91111111,52.1496321 C1.75121956,52.1496321 0,50.3815936 0,48.2009141 C0,46.0206295 1.75121956,44.2521962 3.91111111,44.2521962 L50.7718933,44.2521962 C52.9318044,44.2521962 54.6830044,46.0206295 54.6830044,48.2009141 C54.6830044,50.3815936 52.9318044,52.1496321 50.7718933,52.1496321" id="Fill-9" fill="#B8DFC8" mask="url(#mask-2)"></path>
            <path d="M40.7248356,76.3385897 C36.9069067,76.3385897 33.1366933,75.7647917 29.5193067,74.6341651 C27.4560978,73.9882536 26.30144,71.7767445 26.9408089,69.6932528 C27.5797867,67.6101462 29.7748978,66.4443859 31.8339022,67.0895669 C34.7011378,67.9861233 37.69216,68.4411538 40.7248356,68.4411538 C53.9955289,68.4411538 65.5187378,59.8426231 69.3993422,47.0460128 C70.0313778,44.9598064 72.2161244,43.7847667 74.2840267,44.4257423 C76.3491911,45.0650397 77.5113778,47.2726692 76.8789511,49.3577897 C71.9854667,65.4958051 57.4562756,76.3385897 40.7248356,76.3385897" id="Fill-10" fill="#FFFFFF" mask="url(#mask-2)"></path>
            <path d="M77.53856,32.0878744 L30.6777778,32.0878744 C28.5178667,32.0878744 26.7666667,30.3202308 26.7666667,28.1391564 C26.7666667,25.9584769 28.5178667,24.1904385 30.6777778,24.1904385 L77.53856,24.1904385 C79.6984711,24.1904385 81.4496711,25.9584769 81.4496711,28.1391564 C81.4496711,30.3202308 79.6984711,32.0878744 77.53856,32.0878744" id="Fill-11" fill="#B8DFC8" mask="url(#mask-2)"></path>
            <path d="M8.31225511,32.089059 C7.93260356,32.089059 7.54722222,32.0330859 7.165664,31.9155128 C5.10048978,31.2761167 3.93822489,29.0684872 4.57072978,26.9834654 C9.46458578,10.8442654 23.9937867,0.00187564103 40.7248356,0.00187564103 C44.5446222,0.00187564103 48.3152267,0.575229487 51.9310489,1.70821538 C53.9947467,2.35412692 55.1482311,4.56560641 54.5084711,6.64875256 C53.8691022,8.73219487 51.6767289,9.90338462 49.6145956,9.25085897 C46.7488267,8.35430256 43.7581956,7.89931154 40.7248356,7.89931154 C27.4545333,7.89931154 15.9309333,16.4973487 12.0503289,29.2952423 C11.5347467,30.9950667 9.98594667,32.089059 8.31225511,32.089059" id="Fill-12" fill="#FFFFFF" mask="url(#mask-2)"></path>
            <path d="M67.8501511,13.0923692 C67.8501511,15.2726538 66.0993422,17.0406923 63.9394311,17.0406923 C61.77952,17.0406923 60.0287111,15.2726538 60.0287111,13.0923692 C60.0287111,10.9116897 61.77952,9.14404615 63.9394311,9.14404615 C66.0993422,9.14404615 67.8501511,10.9116897 67.8501511,13.0923692" id="Fill-13" fill="#B8DFC8" mask="url(#mask-2)"></path>
            <path d="M21.4201778,63.2542167 C21.4201778,65.4348962 19.6693689,67.2025496 17.5094578,67.2025496 C15.3495467,67.2025496 13.5987378,65.4348962 13.5987378,63.2542167 C13.5987378,61.0735372 15.3495467,59.3058936 17.5094578,59.3058936 C19.6693689,59.3058936 21.4201778,61.0735372 21.4201778,63.2542167" id="Fill-14" fill="#B8DFC8" mask="url(#mask-2)"></path>
        </g>
    </g>
</svg>
